X:1
T:The Sentry Box
M:6/8
L:1/8
K:A
 E| E2 EE-C E| A3 c2 c| B2 B E2 E| D3- C2 E| E2 E ECE| A2 B c2 d| B2 E E2 E|\
 A3- A2 e| c2 e A2 c| d2 c B2 A/2B/2| c2 A F2 E| D3- C2 D| E2 E ECE|\
 A2 B c2 d| B2 E EFG| A3- A2||

